src/icons/companies/carvana.svg

<svg width="146" height="32" viewBox="0 0 146 32" fill="none" xmlns="http://www.w3.org/2000/svg">
  <g clip-path="url(#clip0_849_60551)">
    <path d="M51.8495 19.7403C51.2655 20.2973 50.5919 20.7668 49.853 21.1322C49.1384 21.4905 48.2728 21.6769 47.2547 21.6769C46.4785 21.6854 45.7098 21.5347 45.0034 21.2356C44.3186 20.9459 43.7019 20.5338 43.1884 20.023C42.666 19.4978 42.2566 18.8848 41.9819 18.2168C41.6904 17.514 41.5434 16.7665 41.5488 16.0133V15.9779C41.5441 15.2262 41.691 14.4801 41.9819 13.7786C42.2564 13.1123 42.6659 12.5011 43.1884 11.9781C43.6939 11.4656 44.3049 11.0523 44.9851 10.7627C45.6935 10.4637 46.4637 10.3121 47.2417 10.3186C47.7348 10.3149 48.2267 10.3624 48.7083 10.4602C49.1224 10.5528 49.525 10.6845 49.9102 10.8533C50.2622 11.0108 50.5947 11.2037 50.9016 11.4285C51.2104 11.6502 51.5025 11.8875 51.7786 12.1297L52.0165 12.3422L52.9423 11.4441L52.6983 11.2316C52.3521 10.9341 52.0058 10.6649 51.6543 10.4199C51.281 10.1606 50.88 9.93753 50.4577 9.75405C49.9982 9.55781 49.5177 9.40729 49.024 9.305C48.4422 9.19022 47.8485 9.13606 47.2539 9.1435C46.2811 9.13451 45.3179 9.32383 44.4322 9.69811C43.5898 10.0534 42.832 10.561 42.2031 11.1912C41.5736 11.8264 41.0798 12.5669 40.748 13.3735C40.3999 14.2134 40.2237 15.1063 40.2287 16.0062V16.0416C40.2226 16.9472 40.3987 17.8459 40.748 18.6914C41.0787 19.4928 41.573 20.2273 42.2039 20.8546C42.8342 21.4699 43.5878 21.965 44.4223 22.3123C45.3 22.6789 46.2527 22.8647 47.215 22.8569C47.7999 22.861 48.3831 22.8001 48.9523 22.6756C49.4657 22.5614 49.9657 22.4011 50.4455 22.1968C50.8978 21.999 51.326 21.7571 51.7229 21.475C52.099 21.2043 52.4557 20.9112 52.7906 20.5974L53.0285 20.3757L52.0821 19.5357L51.8495 19.7403Z" fill="#0D375E"/>
    <path d="M62.142 9.14282L55.7715 22.8571H57.0987L62.6117 10.9367L65.7596 17.5997L64.9755 19.2955H66.5508L68.2197 22.8571H69.4858L63.1225 9.14282H62.142Z" fill="#0D375E"/>
    <path d="M78.8793 17.0876C79.2665 17.0277 79.6465 16.9272 80.0135 16.7878C80.5061 16.6031 80.9639 16.333 81.3668 15.9891C81.7511 15.6553 82.0585 15.2386 82.267 14.7687C82.4833 14.2659 82.5914 13.7211 82.5839 13.1716V13.1353C82.5896 12.6362 82.499 12.1407 82.3174 11.6775C82.146 11.2417 81.895 10.8433 81.578 10.5035C81.1527 10.0643 80.6125 9.73907 79.9731 9.50602C79.2568 9.25985 78.5056 9.13719 77.75 9.14302H72.2285V22.8571H73.4513V17.227H77.4686L81.651 22.8571H83.1999L78.8793 17.0876ZM73.4563 16.0276V10.3721H77.7167C78.9218 10.3721 79.8249 10.6415 80.4381 11.1323C81.0513 11.623 81.354 12.2699 81.3597 13.1694V13.2057C81.3675 13.5926 81.2857 13.9759 81.1213 14.3242C80.9568 14.6725 80.7142 14.9762 80.4133 15.2102C80.0596 15.4833 79.6582 15.6851 79.2309 15.8048C78.6956 15.9567 78.1418 16.03 77.5863 16.0225H73.4563V16.0276Z" fill="#0D375E"/>
    <path d="M91.925 18.5727L88.2315 9.14282H85.0286L85.2091 9.57869L90.6795 22.8571H93.1021L98.7429 9.14428H95.6018L91.925 18.5727Z" fill="#0D375E"/>
    <path d="M104.772 9.14282L98.7429 22.8571H101.758L104.258 17.0878H104.252L106.058 12.9418L107.68 16.7982L106.577 19.3209H108.748L109.516 21.1409L110.241 22.8571H113.371L107.334 9.14282H104.772Z" fill="#0D375E"/>
    <path d="M139.331 9.14282H136.782L130.743 22.8571H133.755L136.256 17.0908L138.057 12.933L139.675 16.7822L138.563 19.324H140.747L141.514 21.1447L142.244 22.8564H145.371L139.331 9.14282Z" fill="#0D375E"/>
    <path d="M125.124 17.5532L118.689 9.14282H116.12L116.114 22.8571H118.992V14.234L125.639 22.8571H128V9.14282H125.124V17.5532Z" fill="#0D375E"/>
    <path d="M31.9757 15.9878C31.9757 24.8189 24.8189 31.9757 15.9856 31.9757C7.15241 31.9757 0 24.8196 0 15.9878C0 7.15605 7.15679 0 15.9835 0C24.8101 0 31.9757 7.1597 31.9757 15.9878Z" fill="#228BE6"/>
    <path d="M16.0061 7.40129C15.1511 7.39578 14.297 7.45507 13.451 7.57864C12.9129 7.65164 12.4873 7.7925 12.3063 7.88519L12.3749 7.9173C12.6352 8.02222 12.9059 8.09927 13.1823 8.1472C13.8934 8.28368 14.8972 8.37272 16.0054 8.37272C16.8589 8.37826 17.7116 8.31898 18.5561 8.19537C19.0942 8.11873 19.5198 7.97641 19.7008 7.88519L19.6322 7.85307C19.3734 7.7493 19.1041 7.6737 18.8292 7.62755C18.1188 7.49033 17.115 7.40129 16.0061 7.40129ZM16.0061 8.96461C15.1234 8.97035 14.2415 8.90986 13.3677 8.78361C12.6377 8.65881 12.1223 8.53401 11.8135 8.25959C11.7596 8.21231 11.716 8.15438 11.6856 8.08943C11.6552 8.02449 11.6386 7.95395 11.6368 7.88227C11.6382 7.81144 11.6546 7.74174 11.6851 7.67778C11.7156 7.61384 11.7593 7.55714 11.8135 7.51151C11.907 7.42584 12.0141 7.35629 12.1303 7.3057C12.4334 7.18025 12.7503 7.09108 13.0743 7.04003C13.8335 6.89406 14.8694 6.80648 16.0105 6.80648C16.892 6.80109 17.7727 6.86159 18.6452 6.98748C19.3752 7.11228 19.8863 7.23781 20.2038 7.51589C20.26 7.56037 20.3055 7.61698 20.3367 7.68151C20.368 7.74603 20.3841 7.81678 20.3841 7.88846C20.3841 7.96015 20.368 8.0309 20.3367 8.09543C20.3055 8.15995 20.26 8.21656 20.2038 8.26105C20.1099 8.34321 20.0044 8.41108 19.8906 8.46249C19.5872 8.58758 19.2705 8.67817 18.9467 8.73252C18.178 8.8763 17.1472 8.96461 16.0061 8.96461Z" fill="#FAB005"/>
    <path d="M22.7218 15.7098C22.4297 15.3551 21.9143 14.4932 21.8581 14.3764L21.9268 14.3604C21.9268 14.3604 23.5737 14.2714 23.2802 13.7035C23.2802 13.7035 22.959 13.0146 21.7472 13.0146C21.6935 13.0134 21.6398 13.0161 21.5866 13.0226L21.5822 13.0183C21.5223 13.0183 21.45 13.0424 21.4179 13.4562C20.4178 11.5907 19.7228 11.2038 19.7228 11.2038C19.5899 11.1272 19.4979 11.079 19.1563 11.0104C18.8146 10.9418 16.1923 10.9221 15.9755 10.9221H15.9594C15.7404 10.9221 13.1239 10.9462 12.7786 11.0104C12.4333 11.0746 12.3406 11.1272 12.2121 11.2038C12.2121 11.2038 11.5172 11.5907 10.517 13.4562C10.4812 13.0409 10.409 13.0183 10.3484 13.0183V13.0226C10.2922 13.0183 10.2396 13.0146 10.187 13.0146C8.97808 13.0146 8.66125 13.7035 8.66125 13.7035C8.36412 14.2714 10.0104 14.3604 10.0104 14.3604L10.0834 14.3764C9.82767 14.84 9.54058 15.2855 9.22411 15.7098C9.17227 15.774 8.86639 16.1288 8.75396 16.3952C8.66212 16.6452 8.61852 16.9105 8.62548 17.1768C8.63789 17.6147 8.68607 19.5174 8.68607 19.5174V21.9185C8.68607 22.0602 8.7744 22.1689 8.88683 22.1689H10.7784C10.8908 22.1689 10.9835 22.0558 10.9835 21.9185V21.6208H20.9624V21.9185C20.9624 22.0602 21.0551 22.1689 21.1631 22.1689H23.0554C23.1678 22.1689 23.2561 22.0558 23.2561 21.9185V19.5174C23.2561 19.5174 23.3043 17.6118 23.316 17.1768C23.329 16.9101 23.2852 16.6438 23.1875 16.3952C23.0751 16.1252 22.7699 15.774 22.7218 15.7098ZM11.2105 13.8729C11.2105 13.8729 11.934 12.2526 12.5078 11.56C12.5078 11.56 13.5766 11.5118 15.0104 11.4994L14.9658 11.6125V11.8578C14.9656 11.88 14.9697 11.9021 14.9781 11.9227C14.9864 11.9434 14.9988 11.9621 15.0145 11.9779C15.0303 11.9937 15.0489 12.0061 15.0695 12.0146C15.0902 12.023 15.1122 12.0273 15.1345 12.0271H16.7975C16.8201 12.0277 16.8425 12.0237 16.8636 12.0155C16.8846 12.0072 16.9037 11.9948 16.9199 11.979C16.936 11.9632 16.9489 11.9444 16.9575 11.9235C16.9663 11.9027 16.9706 11.8803 16.9705 11.8578V11.6125L16.926 11.4994C18.3598 11.5118 19.4286 11.56 19.4286 11.56C20.0031 12.2526 20.7258 13.8729 20.7258 13.8729C20.8302 14.1341 20.609 14.1341 20.609 14.1341H11.3273C11.3273 14.1341 11.1061 14.1341 11.2105 13.8729ZM9.45845 17.8257C9.09343 17.7322 9.05693 17.511 9.05693 17.511C9.02353 17.1885 9.06192 16.8625 9.16935 16.5565C9.28981 16.2375 9.603 16.2017 9.8315 16.2097C10.1045 16.2178 10.9083 16.7294 10.9083 16.7294C11.5223 17.0476 11.6106 18.1439 11.6106 18.1439C10.8874 18.0861 10.1689 17.9798 9.45991 17.8257H9.45845ZM19.6439 18.2081C18.535 18.3008 16.9428 18.3089 15.9689 18.3089C14.995 18.3089 13.4021 18.3008 12.2975 18.2081C12.2975 18.2081 11.9807 17.5351 12.4582 17.5191C12.5268 17.5147 13.9525 17.4666 15.9689 17.463C17.9853 17.4593 19.4147 17.5147 19.4789 17.5191C19.9629 17.5351 19.6454 18.2081 19.6454 18.2081H19.6439ZM22.8809 17.5147C22.8809 17.5147 22.8408 17.7337 22.4794 17.8293C21.7689 17.9798 21.05 18.0876 20.3265 18.1519C20.3265 18.1519 20.4148 17.0571 21.0295 16.7374C21.0295 16.7374 21.8326 16.2265 22.102 16.2178C22.3348 16.2097 22.648 16.2455 22.7648 16.5645C22.8759 16.8686 22.9162 17.1942 22.8824 17.5162L22.8809 17.5147Z" fill="white"/>
  </g>
  <defs>
    <clipPath id="clip0_849_60551">
      <rect width="145.371" height="32" fill="white"/>
    </clipPath>
  </defs>
</svg>

<svg xmlns="http://www.w3.org/2000/svg" width="146" height="32" fill="none" viewBox="0 0 146 32"><g clip-path="url(#a)"><path fill="#0D375E" d="M51.85 19.74a8 8 0 0 1-1.997 1.392c-.715.358-1.58.545-2.598.545a5.6 5.6 0 0 1-2.252-.441 5.57 5.57 0 0 1-3.021-3.019 5.6 5.6 0 0 1-.433-2.204v-.035a5.6 5.6 0 0 1 .433-2.2 5.5 5.5 0 0 1 1.206-1.8 5.6 5.6 0 0 1 4.054-1.66 7 7 0 0 1 1.466.142q.623.14 1.202.393.53.237.992.575c.308.222.6.46.877.702l.237.212.926-.898-.244-.212a13 13 0 0 0-1.044-.812 7 7 0 0 0-1.196-.666 7.6 7.6 0 0 0-1.434-.449 8.6 8.6 0 0 0-1.77-.162 7.1 7.1 0 0 0-2.822.555c-.842.355-1.6.863-2.229 1.493a6.8 6.8 0 0 0-1.455 2.182 6.8 6.8 0 0 0-.52 2.633v.036c-.005.905.17 1.804.52 2.65a6.6 6.6 0 0 0 1.456 2.163 7 7 0 0 0 2.218 1.457c.878.367 1.83.553 2.793.545a8 8 0 0 0 1.737-.181 8.6 8.6 0 0 0 1.494-.48q.68-.297 1.277-.721.565-.406 1.068-.878l.238-.221-.947-.84zM62.142 9.143l-6.37 13.714h1.327l5.513-11.92L65.76 17.6l-.785 1.695h1.576l1.669 3.562h1.266L63.122 9.143zm16.738 7.945c.386-.06.767-.16 1.133-.3a4.5 4.5 0 0 0 1.354-.799 3.5 3.5 0 0 0 .9-1.22 3.9 3.9 0 0 0 .317-1.597v-.037a3.9 3.9 0 0 0-.267-1.457 3.7 3.7 0 0 0-.739-1.174c-.425-.44-.966-.765-1.605-.998a6.7 6.7 0 0 0-2.223-.363h-5.522v13.714h1.223v-5.63h4.018l4.182 5.63H83.2zm-5.424-1.06v-5.656h4.26c1.206 0 2.109.27 2.722.76.613.491.916 1.138.922 2.037v.037a2.5 2.5 0 0 1-.239 1.118 2.44 2.44 0 0 1-.708.886 3.5 3.5 0 0 1-1.182.595 5.7 5.7 0 0 1-1.645.218h-4.13zm18.469 2.545-3.693-9.43h-3.203l.18.436 5.47 13.278h2.423l5.64-13.713h-3.14zm12.847-9.43-6.03 13.714h3.016l2.5-5.77h-.006l1.806-4.145 1.622 3.856-1.103 2.523h2.171l.768 1.82.725 1.716h3.13l-6.037-13.714zm34.559 0h-2.549l-6.039 13.714h3.012l2.501-5.766 1.801-4.158 1.618 3.85-1.112 2.541h2.184l.767 1.82.73 1.712h3.127zm-14.207 8.41-6.435-8.41h-2.569l-.006 13.714h2.878v-8.623l6.647 8.623H128V9.143h-2.876z"/><path fill="#228BE6" d="M31.976 15.988c0 8.83-7.157 15.988-15.99 15.988S0 24.82 0 15.988 7.157 0 15.984 0s15.992 7.16 15.992 15.988"/><path fill="#FAB005" d="M16.006 7.401q-1.284-.008-2.555.178c-.538.073-.964.214-1.145.306l.069.032q.39.158.807.23c.711.137 1.715.226 2.823.226.854.005 1.707-.054 2.551-.178.538-.076.964-.219 1.145-.31l-.069-.032a4 4 0 0 0-.803-.225c-.71-.138-1.714-.227-2.823-.227m0 1.564a18 18 0 0 1-2.638-.181c-.73-.125-1.246-.25-1.555-.524a.52.52 0 0 1-.176-.378.5.5 0 0 1 .176-.37q.142-.13.317-.206.456-.19.944-.266c.76-.146 1.795-.234 2.937-.234.881-.005 1.762.056 2.634.181.73.125 1.241.25 1.559.529a.475.475 0 0 1 0 .745q-.142.124-.313.201-.457.189-.944.27c-.769.144-1.8.233-2.94.233"/><path fill="#fff" d="M22.722 15.71c-.292-.355-.808-1.217-.864-1.334l.069-.016s1.647-.089 1.353-.656c0 0-.321-.69-1.533-.69a1 1 0 0 0-.16.009l-.005-.005c-.06 0-.132.024-.164.438-1-1.865-1.695-2.252-1.695-2.252-.133-.077-.225-.125-.567-.194-.341-.068-2.964-.088-3.18-.088h-.017c-.219 0-2.835.024-3.18.088-.346.065-.438.117-.567.194 0 0-.695.387-1.695 2.252-.036-.415-.108-.438-.169-.438v.005a2 2 0 0 0-.161-.008c-1.209 0-1.526.688-1.526.688-.297.568 1.35.657 1.35.657l.072.016q-.383.697-.859 1.334c-.052.064-.358.419-.47.685-.092.25-.135.515-.129.782.013.438.061 2.34.061 2.34v2.402c0 .141.088.25.2.25h1.892c.113 0 .205-.113.205-.25v-.298h9.98v.298c0 .141.092.25.2.25h1.892c.113 0 .201-.113.201-.25v-2.402l.06-2.34a1.9 1.9 0 0 0-.128-.782c-.113-.27-.418-.621-.466-.685M11.21 13.873s.724-1.62 1.298-2.313c0 0 1.069-.048 2.502-.06l-.044.113v.245a.17.17 0 0 0 .168.17h1.663a.17.17 0 0 0 .16-.104.2.2 0 0 0 .014-.066v-.245l-.045-.114c1.434.013 2.503.061 2.503.061.574.693 1.297 2.313 1.297 2.313.104.261-.117.261-.117.261h-9.282s-.22 0-.117-.261m-1.752 3.953c-.365-.094-.401-.315-.401-.315a2.2 2.2 0 0 1 .112-.954c.12-.32.434-.355.662-.347.274.008 1.077.52 1.077.52.614.318.703 1.414.703 1.414a16 16 0 0 1-2.151-.318zm10.186.382c-1.109.093-2.701.1-3.675.1s-2.567-.007-3.671-.1c0 0-.317-.673.16-.689.069-.004 1.495-.052 3.51-.056a86 86 0 0 1 3.51.056c.485.016.167.69.167.69zm3.237-.693s-.04.219-.402.314q-1.066.226-2.152.323s.088-1.095.702-1.415c0 0 .804-.51 1.073-.52.233-.007.546.029.663.348.11.304.151.63.117.951z"/></g><defs><clipPath id="a"><path fill="#fff" d="M0 0h145.371v32H0z"/></clipPath></defs></svg>
